packages/match-logos/mono/svg/nomorobo.svg

<svg fill="none" height="30" viewBox="0 0 181 30" width="181" xmlns="http://www.w3.org/2000/svg" xmlns:xlink="http://www.w3.org/1999/xlink"><clipPath id="a"><path d="m0 0h181v30h-181z"/></clipPath><g clip-path="url(#a)"><path d="m23.44 29.61h-6.72l-9.95-17.46v17.46h-6.77v-28.07h6.77l9.93 17.46v-17.46h6.75v28.07zm2.77-10.61c-.0364-1.9224.378-3.8266 1.21-5.56.7601-1.5723 1.9763-2.8791 3.49-3.75 1.6322-.90279 3.4753-1.35492 5.34-1.31 1.3658-.07079 2.7309.15135 4.0038.65153 1.2728.50018 2.424 1.26677 3.3762 2.24847 1.891 2.1832 2.8591 5.0161 2.7 7.9v.22c.1494 2.836-.8242 5.6166-2.71 7.74-.9501.9651-2.0932 1.7187-3.3546 2.2116-1.2614.4928-2.6127.7138-3.9654.6484-1.3102.0598-2.619-.1458-3.8477-.6047-1.2287-.4588-2.352-1.1613-3.3023-2.0653-1.8693-1.9465-2.9122-4.5413-2.91-7.24zm6.5.4c-.1058 1.4711.2099 2.9419.91 4.24.2876.4423.6869.801 1.1574 1.0398.4706.2388.9957.3492 1.5226.3202 2.3133 0 3.4967-1.78 3.55-5.34v-.66c0-3.74-1.1967-5.61-3.59-5.61-2.1733 0-3.35 1.6133-3.53 4.84zm22.24-10.65.21 2.45c.6982-.9201 1.6084-1.65792 2.653-2.15065 1.0447-.49273 2.1929-.72579 3.347-.67935 2.6667 0 4.4467 1.04667 5.34 3.14.6601-1.0116 1.5729-1.83339 2.648-2.38409 1.0751-.55071 2.2753-.81127 3.482-.75591 4.2267 0 6.4 2.5567 6.52 7.67v13.57h-6.56v-13.16c.0618-.8136-.1266-1.6266-.54-2.33-.2499-.2738-.5622-.4832-.9105-.6104-.3482-.1271-.722-.1681-1.0895-.1196-.5933-.0204-1.1798.1312-1.6889.4363-.5092.3051-.9193.7509-1.1811 1.2837v14.5h-6.47v-13.13c.0648-.824-.1162-1.6488-.52-2.37-.2493-.2745-.5616-.4844-.91-.6116-.3484-.1271-.7224-.1678-1.09-.1184-.589-.0116-1.1692.1438-1.6735.4482-.5044.3043-.9123.7453-1.1765 1.2718v14.51h-6.5v-20.86h6.09zm26.65 10.25c-.0364-1.9224.378-3.8266 1.21-5.56.7601-1.5723 1.9763-2.8791 3.49-3.75 1.6322-.90279 3.4753-1.35492 5.34-1.31 1.3617-.06919 2.7226.1528 3.9917.65115 1.2692.49835 2.4175 1.26165 3.3683 2.23885 1.891 2.1832 2.859 5.0161 2.7 7.9v.23c.152 2.8346-.818 5.6151-2.7 7.74-.9489.9638-2.0904 1.7167-3.35 2.2095s-2.609.7145-3.96.6505c-1.3102.0598-2.619-.1458-3.8477-.6047-1.2287-.4588-2.352-1.1613-3.3023-2.0653-1.8693-1.9465-2.9122-4.5413-2.91-7.24zm6.5.4c-.1088 1.4701.2034 2.9408.9 4.24.2885.4439.6893.8035 1.1618 1.0424.4724.2388.9997.3484 1.5282.3176 2.3133 0 3.4967-1.78 3.55-5.34v-.66c0-3.74-1.1967-5.61-3.59-5.61-2.1733 0-3.35 1.6133-3.53 4.84zm28.72-4.77-2.14-.15c-2.047 0-3.357.6433-3.93 1.93v13.2h-6.5v-20.86h6.09l.21 2.68c.378-.9028 1.012-1.67491 1.824-2.22063.813-.54571 1.767-.84104 2.746-.84937.611-.011 1.221.06647 1.81.23zm.43 4.37c-.036-1.9224.378-3.8266 1.21-5.56.772-1.5831 2.006-2.8943 3.54-3.76 1.632-.90278 3.475-1.35492 5.34-1.31 1.366-.07079 2.731.15135 4.004.65153s2.424 1.26677 3.376 2.24847c1.891 2.1832 2.859 5.0161 2.7 7.9v.23c.149 2.836-.824 5.6166-2.71 7.74-.956.9716-2.107 1.729-3.378 2.222-1.27.4931-2.631.7105-3.992.638-1.31.0598-2.619-.1458-3.848-.6047-1.228-.4588-2.352-1.1613-3.302-2.0653-1.869-1.9465-2.912-4.5413-2.91-7.24zm6.5.4c-.106 1.4711.21 2.9419.91 4.24.288.4423.687.801 1.157 1.0398.471.2388.996.3492 1.523.3202 2.313 0 3.497-1.78 3.55-5.34v-.66c0-3.74-1.197-5.61-3.59-5.61-2.173 0-3.35 1.6133-3.53 4.84zm35.47-.04c0 3.42-.707 6.05-2.12 7.89-.702.9117-1.614 1.6393-2.66 2.1201-1.045.4808-2.191.7004-3.34.6399-.992.0185-1.973-.2027-2.861-.6449-.888-.4423-1.656-1.0924-2.239-1.8951l-.27 2.14h-5.83v-29.61h6.5v10.43c.581-.66823 1.303-1.19949 2.114-1.55566.811-.35616 1.691-.5284 2.576-.50434 1.152-.05502 2.301.17114 3.346.65895s1.956 1.22265 2.654 2.14105c1.413 1.8667 2.12 4.49 2.12 7.87v.33zm-6.52-.41c.11-1.472-.165-2.9473-.8-4.28-.256-.4159-.62-.7545-1.053-.9799-.433-.2255-.92-.3291-1.407-.3001-.609-.0469-1.218.0865-1.751.3835-.534.297-.968.7444-1.249 1.2865v8.28c.287.5452.729.9935 1.269 1.2888.541.2953 1.157.4244 1.771.3712.674.049 1.342-.151 1.879-.562.536-.411.903-1.0045 1.031-1.668.257-1.2596.361-2.5455.31-3.83zm8.17.05c-.036-1.9224.378-3.8266 1.21-5.56.76-1.5723 1.976-2.8791 3.49-3.75 1.632-.90279 3.475-1.35492 5.34-1.31 1.366-.07079 2.731.15135 4.004.65153s2.424 1.26677 3.376 2.24847c1.891 2.1832 2.859 5.0161 2.7 7.9v.22c.149 2.836-.824 5.6166-2.71 7.74-.945.96-2.082 1.7106-3.336 2.2033s-2.598.7164-3.944.6567c-1.31.0598-2.619-.1458-3.848-.6047-1.228-.4588-2.352-1.1613-3.302-2.0653-1.869-1.9465-2.912-4.5413-2.91-7.24zm6.5.4c-.106 1.4711.21 2.9419.91 4.24.291.4485.697.8111 1.175 1.0502s1.012.3461 1.545.3098c2.313 0 3.497-1.78 3.55-5.34v-.66c0-3.74-1.197-5.61-3.59-5.61-2.173 0-3.35 1.6133-3.53 4.84z" fill="#1f304c"/></g></svg>

<svg width="181" height="30" viewBox="0 0 181 30" fill="none" xmlns="http://www.w3.org/2000/svg">
<g clip-path="url(#clip0)">
<path d="M23.44 29.61H16.72L6.77 12.15V29.61H0V1.54H6.77L16.7 19V1.54H23.45V29.61H23.44ZM26.21 19C26.1736 17.0776 26.588 15.1734 27.42 13.44C28.1801 11.8677 29.3963 10.5609 30.91 9.69C32.5422 8.78721 34.3853 8.33508 36.25 8.38C37.6158 8.30921 38.9809 8.53135 40.2538 9.03153C41.5266 9.53171 42.6778 10.2983 43.63 11.28C45.521 13.4632 46.4891 16.2961 46.33 19.18V19.4C46.4794 22.236 45.5058 25.0166 43.62 27.14C42.6699 28.1051 41.5268 28.8587 40.2654 29.3516C39.004 29.8444 37.6527 30.0654 36.3 30C34.9898 30.0598 33.681 29.8542 32.4523 29.3953C31.2236 28.9365 30.1003 28.234 29.15 27.33C27.2807 25.3835 26.2378 22.7887 26.24 20.09L26.21 19ZM32.71 19.4C32.6042 20.8711 32.9199 22.3419 33.62 23.64C33.9076 24.0823 34.3069 24.441 34.7774 24.6798C35.248 24.9186 35.7731 25.029 36.3 25C38.6133 25 39.7967 23.22 39.85 19.66V19C39.85 15.26 38.6533 13.39 36.26 13.39C34.0867 13.39 32.91 15.0033 32.73 18.23L32.71 19.4ZM54.95 8.75L55.16 11.2C55.8582 10.2799 56.7684 9.54208 57.813 9.04935C58.8577 8.55662 60.0059 8.32356 61.16 8.37C63.8267 8.37 65.6067 9.41667 66.5 11.51C67.1601 10.4984 68.0729 9.67661 69.148 9.12591C70.2231 8.5752 71.4233 8.31464 72.63 8.37C76.8567 8.37 79.03 10.9267 79.15 16.04V29.61H72.59V16.45C72.6518 15.6364 72.4634 14.8234 72.05 14.12C71.8001 13.8462 71.4878 13.6368 71.1395 13.5096C70.7913 13.3825 70.4175 13.3415 70.05 13.39C69.4567 13.3696 68.8702 13.5212 68.3611 13.8263C67.8519 14.1314 67.4418 14.5772 67.18 15.11V29.61H60.71V16.48C60.7748 15.656 60.5938 14.8312 60.19 14.11C59.9407 13.8355 59.6284 13.6256 59.28 13.4984C58.9316 13.3713 58.5576 13.3306 58.19 13.38C57.601 13.3684 57.0208 13.5238 56.5165 13.8282C56.0121 14.1325 55.6042 14.5735 55.34 15.1V29.61H48.84V8.75H54.93H54.95ZM81.6 19C81.5636 17.0776 81.978 15.1734 82.81 13.44C83.5701 11.8677 84.7863 10.5609 86.3 9.69C87.9322 8.78721 89.7753 8.33508 91.64 8.38C93.0017 8.31081 94.3626 8.5328 95.6317 9.03115C96.9009 9.5295 98.0492 10.2928 99 11.27C100.891 13.4532 101.859 16.2861 101.7 19.17V19.4C101.852 22.2346 100.882 25.0151 99 27.14C98.0511 28.1038 96.9096 28.8567 95.65 29.3495C94.3904 29.8423 93.041 30.064 91.69 30C90.3798 30.0598 89.071 29.8542 87.8423 29.3953C86.6136 28.9365 85.4903 28.234 84.54 27.33C82.6707 25.3835 81.6278 22.7887 81.63 20.09L81.6 19ZM88.1 19.4C87.9912 20.8701 88.3034 22.3408 89 23.64C89.2885 24.0839 89.6893 24.4435 90.1618 24.6824C90.6342 24.9212 91.1615 25.0308 91.69 25C94.0033 25 95.1867 23.22 95.24 19.66V19C95.24 15.26 94.0433 13.39 91.65 13.39C89.4767 13.39 88.3 15.0033 88.12 18.23L88.1 19.4ZM116.82 14.63L114.68 14.48C112.633 14.48 111.323 15.1233 110.75 16.41V29.61H104.25V8.75H110.34L110.55 11.43C110.928 10.5272 111.562 9.75509 112.374 9.20937C113.187 8.66366 114.141 8.36833 115.12 8.36C115.731 8.349 116.341 8.42647 116.93 8.59L116.82 14.63ZM117.25 19C117.214 17.0776 117.628 15.1734 118.46 13.44C119.232 11.8569 120.466 10.5457 122 9.68C123.632 8.77722 125.475 8.32508 127.34 8.37C128.706 8.29921 130.071 8.52135 131.344 9.02153C132.617 9.52171 133.768 10.2883 134.72 11.27C136.611 13.4532 137.579 16.2861 137.42 19.17V19.4C137.569 22.236 136.596 25.0166 134.71 27.14C133.754 28.1116 132.603 28.869 131.332 29.362C130.062 29.8551 128.701 30.0725 127.34 30C126.03 30.0598 124.721 29.8542 123.492 29.3953C122.264 28.9365 121.14 28.234 120.19 27.33C118.321 25.3835 117.278 22.7887 117.28 20.09L117.25 19ZM123.75 19.4C123.644 20.8711 123.96 22.3419 124.66 23.64C124.948 24.0823 125.347 24.441 125.817 24.6798C126.288 24.9186 126.813 25.029 127.34 25C129.653 25 130.837 23.22 130.89 19.66V19C130.89 15.26 129.693 13.39 127.3 13.39C125.127 13.39 123.95 15.0033 123.77 18.23L123.75 19.4ZM159.22 19.36C159.22 22.78 158.513 25.41 157.1 27.25C156.398 28.1617 155.486 28.8893 154.44 29.3701C153.395 29.8509 152.249 30.0705 151.1 30.01C150.108 30.0285 149.127 29.8073 148.239 29.3651C147.351 28.9228 146.583 28.2727 146 27.47L145.73 29.61H139.9V0H146.4V10.43C146.981 9.76177 147.703 9.23051 148.514 8.87434C149.325 8.51818 150.205 8.34594 151.09 8.37C152.242 8.31498 153.391 8.54114 154.436 9.02895C155.481 9.51676 156.392 10.2516 157.09 11.17C158.503 13.0367 159.21 15.66 159.21 19.04V19.37L159.22 19.36ZM152.7 18.95C152.81 17.478 152.535 16.0027 151.9 14.67C151.644 14.2541 151.28 13.9155 150.847 13.6901C150.414 13.4646 149.927 13.361 149.44 13.39C148.831 13.3431 148.222 13.4765 147.689 13.7735C147.155 14.0705 146.721 14.5179 146.44 15.06V23.34C146.727 23.8852 147.169 24.3335 147.709 24.6288C148.25 24.9241 148.866 25.0532 149.48 25C150.154 25.049 150.822 24.849 151.359 24.438C151.895 24.027 152.262 23.4335 152.39 22.77C152.647 21.5104 152.751 20.2245 152.7 18.94V18.95ZM160.87 19C160.834 17.0776 161.248 15.1734 162.08 13.44C162.84 11.8677 164.056 10.5609 165.57 9.69C167.202 8.78721 169.045 8.33508 170.91 8.38C172.276 8.30921 173.641 8.53135 174.914 9.03153C176.187 9.53171 177.338 10.2983 178.29 11.28C180.181 13.4632 181.149 16.2961 180.99 19.18V19.4C181.139 22.236 180.166 25.0166 178.28 27.14C177.335 28.1 176.198 28.8506 174.944 29.3433C173.69 29.836 172.346 30.0597 171 30C169.69 30.0598 168.381 29.8542 167.152 29.3953C165.924 28.9365 164.8 28.234 163.85 27.33C161.981 25.3835 160.938 22.7887 160.94 20.09L160.87 19ZM167.37 19.4C167.264 20.8711 167.58 22.3419 168.28 23.64C168.571 24.0885 168.977 24.4511 169.455 24.6902C169.933 24.9293 170.467 25.0363 171 25C173.313 25 174.497 23.22 174.55 19.66V19C174.55 15.26 173.353 13.39 170.96 13.39C168.787 13.39 167.61 15.0033 167.43 18.23L167.37 19.4Z" fill="#1F304C"/>
</g>
<defs>
<clipPath id="clip0">
<rect width="181" height="30" fill="white"/>
</clipPath>
</defs>
</svg>
